!!!COM: Frescobaldi, Girolamo
!!!CDT: 1583///-1643
!!!ONM: No. 40
!!!OTL: No. 40: Canzon Sesta &agrave; 4. Canto, Alto, Tenore, Basso
!!!OPR: Canzoni da sonare a una, due, tre et quattro, libro primo
!!!PPP: Venezia
!!!PDT: 1634
!!!URL: http://icking-music-archive.org/ByComposer/Frescobaldi.html
!!!ONB: Andrea Friggi, ed.
**kern	**kern	**kern	**kern	**kern
!Basso ad Organo	!Basso	!Tenore	!Alto	!Soprano
*staff5	*staff4	*staff3	*staff2	*staff1
*Icello	*Icello	*Iviola	*Ivioln	*Ivioln
*clefF4	*clefF4	*clefC3	*clefG2	*clefG2
*k[]	*k[]	*k[]	*k[]	*k[]
*met(C)	*met(C)	*met(C)	*met(C)	*met(C)
*M4/4	*M4/4	*M4/4	*M4/4	*M4/4
*MM120	*MM120	*MM120	*MM120	*MM120
=1-	=1-	=1-	=1-	=1-
1G	1r	1r	2r	4dd\
.	.	.	.	8dd\L
.	.	.	.	8dd\J
.	.	.	4g/	4dd\
.	.	.	8g/L	4ee\
.	.	.	8g/J	.
=2	=2	=2	=2	=2
4G\	1r	4G/	4g/	4b\
8G\L	.	8G/L	4d/	2dd\
8G\J	.	8G/J	.	.
4G\	.	4G/	4e/	.
4A\	.	4A/	4e/	4cc#\
=3	=3	=3	=3	=3
4D\	4D\	4D/	2f#/	2dd\
8D\L	8D\L	4A/	.	.
8D\J	8D\J	.	.	.
4D\	4D\	4.B/	4d/	2r
4E\	4E\	.	[4g/	.
.	.	8c\	.	.
=4	=4	=4	=4	=4
4BB/	4BB/	4d\	8g/L]	2r
.	.	.	8f/J	.
4C/	4C/	2c\	4e/	.
2GG/	2GG/	.	2d/	4g/
.	.	4B/	.	8g/L
.	.	.	.	8g/J
=5	=5	=5	=5	=5
2.C/	2.C/	1c	2e/	4g/
.	.	.	.	4a/
.	.	.	2r	4e/
4c\	4c\	.	.	4ee\
=6	=6	=6	=6	=6
4.B\	4.B\	1r	4d/	4dd\
.	.	.	8d/L	8g/L
8A\	8A\	.	8d/J	8a/J
[2G\	[2G\	.	4d/	8b\L
.	.	.	.	8b\
.	.	.	4e/	8b\
.	.	.	.	8cc\J
=7	=7	=7	=7	=7
4G\]	4G\]	1r	4B/	4dd\
4E\	4E\	.	2c/	4ee\
4D\	4D\	.	.	4ff\
4G\	4G\	.	4B/	4dd\
=8	=8	=8	=8	=8
1C	1C	4G/	4.c/	2ee\
.	.	8G/L	.	.
.	.	8G/J	8d/	.
.	.	4G/	4e/	2r
.	.	4A/	8f/L	.
.	.	.	8e/J	.
=9	=9	=9	=9	=9
2G\	2r	4B/	2d/	4dd\
.	.	8G/L	.	8dd\L
.	.	8A/J	.	8dd\J
4G\	4G\	4B/	2g/	4dd\
8E\L	8E\L	4c\	.	4ee\
8F\J	8F\J	.	.	.
=10	=10	=10	=10	=10
4G\	4G\	4B/	8r	4dd\
.	.	.	8g/L	.
4A\	4A\	4c\	8e/	4cc\
.	.	.	8f/J	.
4G\	4G\	4d\	4g/	4b\
4E\	4E\	4e\	8g/L	8cc\L
.	.	.	8g/J	8b\J
=11	=11	=11	=11	=11
4F\	4F\	4.c\	4f/	4a/
4C/	4C/	.	4e/	2g/
.	.	8B/L	.	.
2D\	2D\	8A/	2d/	.
.	.	8G/J	.	.
.	.	4A/	.	4f#/
=12	=12	=12	=12	=12
2.GG/	1GG	2B/	4d/	1g
.	.	.	8d/L	.
.	.	.	8d/J	.
.	.	8r	4d/	.
.	.	8G/L	.	.
8E\L	.	8E/	4e/	.
8F\J	.	8F/J	.	.
=13	=13	=13	=13	=13
4G\	1r	4G/	4B/	8r
.	.	.	.	8g/L
4A\	.	4A/	4c/	8e/
.	.	.	.	8f#/J
4B\	.	4B/	4d/	4g/
4c\	.	[4c\	4e/	8a/L
.	.	.	.	8g/J
=14	=14	=14	=14	=14
4D\	4D\	4c\]	2d/	4f#/
8D\L	8D\L	4B/	.	4.dd\
8D\J	8D\J	.	.	.
4D\	4D\	4A/	4r	.
.	.	.	.	8cc\L
4E\	4E\	4G/	[4g/	8b\
.	.	.	.	8cc\J
=15	=15	=15	=15	=15
4BB/	4BB/	1G	8g/L]	4dd\
.	.	.	8f/J	.
4C/	4C/	.	4e/	2cc\
4GG/	4GG/	.	4.d/	.
[4G\	[4G\	.	.	4b\
.	.	.	8e/	.
=16	=16	=16	=16	=16
4G\]	4G\]	4r	8c#/L	2a/
.	.	.	8A/J	.
4F\	4F\	4A/	2d/	.
2E\	4.E\	4B/	.	4.g/
.	.	8A/L	4c#/	.
.	8E\	8G/J	.	8g/
=17	=17	=17	=17	=17
2.D\	1D	4A/	2d/	1f#
.	.	8A/L	.	.
.	.	8A/J	.	.
.	.	4A/	2r	.
4B\	.	4B/	.	.
=18	=18	=18	=18	=18
2F#\	1r	2F#/	4d/	2r
.	.	.	8d/L	.
.	.	.	8d/J	.
[2G\	.	2G/	4d/	8r
.	.	.	.	8dd\L
.	.	.	4e/	8b\
.	.	.	.	8cc\J
=19	=19	=19	=19	=19
4G\]	1r	8r	4B/	4dd\
.	.	8G/L	.	.
8E\L	.	8E/	4c/	4ee\
8F\J	.	8F/J	.	.
4G\	.	4G/	8B/L	4dd\
.	.	.	8g/	.
4A\	.	4A/	8e/	4cc\
.	.	.	8f/J	.
=20	=20	=20	=20	=20
4B\	1r	4B/	4g/	4b\
2c\	.	2c\	4e/	8a/L
.	.	.	.	8g/J
.	.	.	4f#/	4a/
4B\	.	4B/	[4g/	4b\
=21	=21	=21	=21	=21
4A\	2r	4A/	4g/]	4cc\
4D\	.	2d\	4f#/	8b/L
.	.	.	.	8a/J
4G\	4G\	.	2g/	2b\
8G\L	8G\L	4e\	.	.
8G\J	8G\J	.	.	.
=22	=22	=22	=22	=22
4G\	4G\	4B/	4r	2r
4A\	4A\	4c\	8e/L	.
.	.	.	8f/J	.
4E\	4E\	4G/	4g/	8r
.	.	.	.	8cc\L
4F\	4F\	4A/	4f/	8a\
.	.	.	.	8b\J
=23	=23	=23	=23	=23
4C/	4C/	4G/	4e/	4cc\
4D\	4D\	2F/	4f/	2a/
2BB-/	2BB-/	.	2d/	.
.	.	8E/L	.	4g/
.	.	8D/J	.	.
=24	=24	=24	=24	=24
4AA/	4AA/	4E/	4c#/	4.a/
4FF/	4FF/	4F/	2d/	.
.	.	.	.	8a/
4GG/	4GG/	2E/	.	4b-\
4AA/	4AA/	.	4c#/	4a/
=25	=25	=25	=25	=25
1D	1D	1F#	1d	1a
=26	=26	=26	=26	=26
2GG/	1r	1r	2r	4dd\
.	.	.	.	8dd\L
.	.	.	.	8cc\J
2G\	.	.	4g/	4b\
.	.	.	8g/L	4dd\
.	.	.	8f/J	.
=27	=27	=27	=27	=27
4.A\	1r	2r	4e/	8cc\L
.	.	.	.	8dd\
.	.	.	4e/	8cc\
8G\	.	.	.	8b\J
4F\	.	4r	8f/L	2a/
.	.	.	8g/	.
4D\	.	4D/	8f/	.
.	.	.	8e/J	.
=28	=28	=28	=28	=28
4G\	1r	4G/	4.d/	2b\
8G\L	.	8G/L	.	.
8G\J	.	8G/J	8e/	.
4A\	.	4A/	4f/	2r
4c\	.	4c\	4e/	.
=29	=29	=29	=29	=29
4.G\	4G\	4c\	2d/	4r
.	8G\L	4B/	.	4d/
8F\	8F\J	.	.	.
4E\	4E\	4.c\	2e/	4g/
4E\	4E\	.	.	8g/L
.	.	8B/	.	8g/J
=30	=30	=30	=30	=30
4.F\	8F\L	2A/	4.c/	4a/
.	8G\	.	.	.
.	8F\	.	.	4cc\
8E\	8E\J	.	8c/	.
4D\	4D\	2d\	2f/	4cc\
4G\	4G\	.	.	4b\
=31	=31	=31	=31	=31
4.C/	4.C/	4c\	2.e/	1cc
.	.	4G/	.	.
8BB/	8BB/	.	.	.
2AA/	2AA/	4c\	.	.
.	.	8c\L	4f#/	.
.	.	8c\J	.	.
=32	=32	=32	=32	=32
4GG/	4GG/	4B/	2g/	2r
2G\	2G\	4B/	.	.
.	.	2A/	2d/	4dd\
4F#\	4F#\	.	.	8dd\L
.	.	.	.	8cc\J
=33	=33	=33	=33	=33
4.G\	4G\	2B/	4r	4b\
.	8G\L	.	4d/	4b\
8F\	8F\J	.	.	.
4E\	4E\	2G/	4g/	8cc\L
.	.	.	.	8dd\
4E\	4E\	.	8g/L	8cc\
.	.	.	8g/J	8b\J
=34	=34	=34	=34	=34
2F\	2F\	2r	4c/	2a/
.	.	.	2f/	.
2C/	2C/	4G/	.	2g/
.	.	[4c\	4e/	.
=35	=35	=35	=35	=35
4GG/	4GG/	4c\]	1d	2r
2G\	2G\	4B/	.	.
.	.	4.A/	.	4a/
4F\	4F\	.	.	[4dd\
.	.	8A/	.	.
=36	=36	=36	=36	=36
2E\	2E\	2G/	4e/	4dd\]
.	.	.	2g/	4cc#\
2D\	2D\	4A/	.	2dd\
.	.	[4d\	4f/	.
=37	=37	=37	=37	=37
2A\	1r	4d\]	4.e/	4ee\
.	.	4c\	.	2a/
.	.	.	8e/	.
2B\	.	2B/	2d/	.
.	.	.	.	4g#/
=38	=38	=38	=38	=38
2A\	1r	2A/	4c/	4a/
.	.	.	2e/	2cc\
2G\	.	2G/	.	.
.	.	.	4d/	[4b\
=39	=39	=39	=39	=39
4C/	4C/	2c\	2e/	4b\]
2c\	2c\	.	.	4a/
.	.	2r	2d/	4f#/
4B\	4B\	.	.	[4g/
=40	=40	=40	=40	=40
2D\	4A\	4D/	1r	4g/]
.	4D\	2d\	.	4f#/
4.E\	4.E\	.	.	4g/
.	.	[4c\	.	4e/
8F\	8F\	.	.	.
=41	=41	=41	=41	=41
4G\	4G\	4c\]	4G/	1d
4GG/	4GG/	4B/	2g/	.
2D\	4.D\	4A/	.	.
.	.	4B/	[4f/	.
.	8D\	.	.	.
=42	=42	=42	=42	=42
2.C/	2.C/	4c\	4f/]	2r
.	.	4G/	4e/	.
.	.	2G/	2d/	4d/
4BB/	4BB/	.	.	[4dd\
=43	=43	=43	=43	=43
2C/	2C/	1G	2e/	4dd\]
.	.	.	.	2cc\
2EE/	2EE/	.	4c/	.
.	.	.	[4g/	4b\
=44	=44	=44	=44	=44
2FF/	2FF/	4A/	4g/]	2a/
.	.	2d\	2f/	.
2GG/	2GG/	.	.	2g/
.	.	[4c\	4e/	.
=45	=45	=45	=45	=45
4GG/	4GG/	4c\]	2d/	2g/
2G\	2G\	4B/	.	.
.	.	2A/	[2a/	4d/
8F#\L	8F#\L	.	.	[4dd\
8G\J	8G\J	.	.	.
=46	=46	=46	=46	=46
2A\	2A\	[1A	4a/]	4dd\]
.	.	.	4e/	8cc#\L
.	.	.	.	8b\J
2AA/	2AA/	.	2e/	2cc#\
=47	=47	=47	=47	=47
1D	1D	1A]	1f#	1dd
=48	=48	=48	=48	=48
*M3/2	*M3/2	*M3/2	*M3/2	*M3/2
1G	1.r	2r	2r	2d/
.	.	2r	2r	4e/
.	.	.	.	4f/
2G\	.	2G/	2B/	2g/
=49	=49	=49	=49	=49
2.C/	1.r	2.C/	2.e/	2.g/
4c\	.	4c\	4e/	4g/
2B\	.	2B/	2g/	2g/
=50	=50	=50	=50	=50
2A\	2r	2A/	1g	1a
1D	2r	1d	.	.
.	2D\	.	2f#/	2a/
=51	=51	=51	=51	=51
2.GG/	2.GG/	2.d\	1g	2.b\
4G\	4G\	4d\	.	4b\
2F\	2F\	4A/	2r	4cc\
.	.	4B/	.	4dd\
=52	=52	=52	=52	=52
2E\	2E\	1c	1.r	2ee\
1G	1G	.	.	1dd
.	.	2B/	.	.
=53	=53	=53	=53	=53
1C	1.C	1.c	2G/	1ee
.	.	.	4A/	.
.	.	.	4B/	.
2C/	.	.	2c/	2g/
=54	=54	=54	=54	=54
1G	1G	1.r	2.B/	2.d/
.	.	.	4B/	4dd\
2A\	2r	.	2A/	2cc\
=55	=55	=55	=55	=55
1G	1.r	2B/	1G	2.b\
.	.	4c\	.	.
.	.	4d\	.	4b\
2E\	.	2e\	2g/	2cc#\
=56	=56	=56	=56	=56
2D\	1.r	2d\	2.f#/	2.dd\
2BB/	.	2B/	.	.
.	.	.	4g/	4ee\
2C/	.	2c\	4e/	4cc\
.	.	.	4fn/	4dd\
=57	=57	=57	=57	=57
1G	2r	4G/	1d	1.b
.	.	4A/	.	.
.	2r	4B/	.	.
.	.	4c\	.	.
2G\	2G\	2d\	2B/	.
=58	=58	=58	=58	=58
2.C/	2.C/	2.c\	2e/	1.r
.	.	.	2g/	.
4c\	4c\	4e\	.	.
2B\	2B\	2d\	2g/	.
=59	=59	=59	=59	=59
1A	1A	1c	1a	2cc\
.	.	.	.	4dd\
.	.	.	.	4ee\
2F\	2F\	2A/	2a/	2ff\
=60	=60	=60	=60	=60
1C	2.C/	2c\	1.g	2.ee\
.	.	2G/	.	.
.	4C/	.	.	4ff\
2BB/	2BB/	2G/	.	4dd\
.	.	.	.	4ee\
=61	=61	=61	=61	=61
1AA	1AA	1A	2c/	1cc
.	.	.	4d/	.
.	.	.	4e/	.
2FF/	2FF/	2c\	2f/	2a/
=62	=62	=62	=62	=62
2.GG/	2.GG/	2.B/	2.d/	1.g
4G\	4G\	4B/	4d/	.
2F\	2F\	2d\	2d/	.
=63	=63	=63	=63	=63
2E\	2E\	1d	1e	1.r
1A	1A	.	.	.
.	.	2c\	2e/	.
=64	=64	=64	=64	=64
2.D\	2.D\	1d	1f#	2a/
.	.	.	.	4b\
4C/	4C/	.	.	4cc\
2BB/	2BB/	2G/	2r	2dd\
=65	=65	=65	=65	=65
2.C/	2.C/	2G/	2e/	1cc
.	.	4A/	4f/	.
4BB/	4BB/	4B/	4g/	.
2AA/	2AA/	2c\	2a/	2f/
=66	=66	=66	=66	=66
2.BB-/	2.BB-/	2F/	2d/	1f
.	.	4G/	4e/	.
4AA/	4AA/	4A/	4f/	.
2GG/	2GG/	2B-/	2g/	2e/
=67	=67	=67	=67	=67
*met(C)	*met(C)	*met(C)	*met(C)	*met(C)
*M4/4	*M4/4	*M4/4	*M4/4	*M4/4
2AA/	1AA	2.A/	1c#	2e/
4A\	.	.	.	8r
.	.	.	.	8a\L
4G\	.	4G/	.	8b\
.	.	.	.	8cc#\J
=68	=68	=68	=68	=68
2F#\	1r	2F#/	8r	4.dd\
.	.	.	8A/	.
.	.	.	4.d/	.
.	.	.	.	8cc\
4.G\	.	4.G/	.	4.b\
.	.	.	8c/	.
.	.	.	[4B/	.
8Fn\	.	8Fn/	.	8a/
=69	=69	=69	=69	=69
4.E\	1r	4.E/	8B/L]	4g/
.	.	.	8G/J	.
.	.	.	4.g/	4.ee\
8C/	.	8C/	.	.
4.c\	.	4.c\	.	.
.	.	.	8f/	8dd\
.	.	.	4e/	[4cc\
8B\	.	8B/	.	.
=70	=70	=70	=70	=70
8A\L	8r	2A/	8r	4cc\]
8AA\	8AA/L	.	8c/L	.
8BB\	8BB/	.	8d/	4b\
8C\J	8C/J	.	8e/J	.
4.D\	4.D\	8r	2f#/	2a/
.	.	8A/L	.	.
.	.	8B/	.	.
8C/	8C/	8c/J	.	.
=71	=71	=71	=71	=71
4.BB/	4.BB/	2d\	2g/	8r
.	.	.	.	8d/
.	.	.	.	4.dd\
8AA/	8AA/	.	.	.
2GG/	2GG/	8r	2g/	.
.	.	8G/L	.	8b\L
.	.	8A/	.	8cc\
.	.	8B/J	.	8dd\J
=72	=72	=72	=72	=72
8C\L	8r	2c\	4.g/	4.ee\
8E\	8E\L	.	.	.
8F\	8F\	.	.	.
8G\J	8G\J	.	8f/	8dd\
2A\	2A\	8r	4e/	4.cc\
.	.	8c\L	.	.
.	.	8d\	8f/L	.
.	.	8e\J	8g/J	8b\
=73	=73	=73	=73	=73
4F\	8r	4.f\	4.a/	2a/
.	8F\L	.	.	.
8G\L	8G\	.	.	.
8A\J	8A\J	8e\	8g/	.
8B-\L	8B-\L	4.d\	4.f/	2r
8D\	8D\	.	.	.
8E\	8E\	.	.	.
8F\J	8F\J	8c\	8e/	.
=74	=74	=74	=74	=74
4.G\	4.G\	4.B/	2d/	8r
.	.	.	.	8b\L
.	.	.	.	8cc\
8F\	8F\	8A/	.	8dd\J
4.E\	4.E\	2G/	2r	8ee\L
.	.	.	.	8g\J
.	.	.	.	4cc\
8C/	8C/	.	.	.
=75	=75	=75	=75	=75
4.F\	4.F\	8r	8r	2a/
.	.	8A/L	8c/L	.
.	.	8B/	8d/	.
8E\	8E\	8c/J	8e/J	.
4.D\	4.D\	8d/L	4.f/	8r
.	.	8A/J	.	8a\L
.	.	4d\	.	8b\
8C/	8C/	.	8e/	8cc\J
=76	=76	=76	=76	=76
4.BB/	4.BB/	2G/	2d/	8dd\L
.	.	.	.	8g\J
.	.	.	.	4.dd\
8GG/	8GG/	.	.	.
4.G\	4.G\	[2B/	8r	.
.	.	.	8d/L	8cc\
.	.	.	8e/	4b\
8F\	8F\	.	8f/J	.
=77	=77	=77	=77	=77
2E\	2E\	2B/]	8g/L	8r
.	.	.	8B/	8g/L
.	.	.	8c/	8a/
.	.	.	8d/J	8b/J
4AA/	8r	2A/	2e/	[2cc\
.	8AA/L	.	.	.
8BB/L	8BB/	.	.	.
8C/J	8C/J	.	.	.
=78	=78	=78	=78	=78
1D	1D	8r	4f#/	4cc\]
.	.	8A/L	.	.
.	.	8B/	2g/	4b\
.	.	8c/J	.	.
.	.	2d\	.	2a/
.	.	.	4f#/	.
=79	=79	=79	=79	=79
0GG	0GG	0d	0g	0b
==	==	==	==	==
*-	*-	*-	*-	*-
!!!ENC: Craig Stuart Sapp
!!!END: 2004/12/14/
